webapp/src/main/webapp/resources/upvote-clicked.svg

<?xml version="1.0" encoding="UTF-8"?>
<svg xmlns="http://www.w3.org/2000/svg" xmlns:xlink="http://www.w3.org/1999/xlink" width="24px" height="24px" viewBox="0 0 24 24" version="1.1">
<g id="surface1">
<path style=" stroke:none;fill-rule:nonzero;fill:rgb(55.686275%,65.490196%,90.980392%);fill-opacity:1;" d="M 4 14 L 8 14 L 8 21 C 8 21.550781 8.449219 22 9 22 L 15 22 C 15.550781 22 16 21.550781 16 21 L 16 14 L 20 14 C 20.382812 14 20.734375 13.777344 20.902344 13.433594 C 21.066406 13.085938 21.019531 12.675781 20.78125 12.375 L 12.78125 2.375 C 12.398438 1.898438 11.601562 1.898438 11.21875 2.375 L 3.21875 12.375 C 2.980469 12.675781 2.933594 13.085938 3.097656 13.433594 C 3.265625 13.777344 3.617188 14 4 14 Z M 4 14 "/>
</g>
</svg>

<svg xmlns="http://www.w3.org/2000/svg" xmlns:svgjs="http://svgjs.com/svgjs" xmlns:xlink="http://www.w3.org/1999/xlink" width="288" height="288"><svg xmlns="http://www.w3.org/2000/svg" width="288" height="288" fill="#ff4500" viewBox="0 0 24 24"><path fill="#8ea7e8" d="M4 14h4v7a1 1 0 0 0 1 1h6a1 1 0 0 0 1-1v-7h4a1.001 1.001 0 0 0 .781-1.625l-8-10c-.381-.475-1.181-.475-1.562 0l-8 10A1.001 1.001 0 0 0 4 14z" class="color000 svgShape"/></svg></svg>
